; generated by PrusaSlicer 2.9.0 on 2025-02-17 at 23:32:10 UTC

; 

; external perimeters extrusion width = 0.45mm
; perimeters extrusion width = 0.45mm
; infill extrusion width = 0.45mm
; solid infill extrusion width = 0.45mm
; top infill extrusion width = 0.40mm
; first layer extrusion width = 0.42mm

;TYPE:Custom
G90 ; use absolute coordinates
M83 ; extruder relative mode
M140 S60 ; set final bed temp
M104 S150 ; set temporary nozzle temp to prevent oozing during homing
G4 S10 ; allow partial nozzle warmup
G28 ; home all axis
G1 Z50 F240
G1 X2 Y10 F3000
M104 S200 ; set final nozzle temp
M190 S60 ; wait for bed temp to stabilize
M109 S200 ; wait for nozzle temp to stabilize
G1 Z0.28 F240
G92 E0
G1 Y140 E10 F1500 ; prime the nozzle
G1 X2.3 F5000
G92 E0
G1 Y10 E10 F1200 ; prime the nozzle
G92 E0
G21 ; set units to millimeters
G90 ; use absolute coordinates
M83 ; use relative distances for extrusion
; Filament gcode
M107
;LAYER_CHANGE
;Z:0.25
;HEIGHT:0.25
G1 E-6 F3600
G1 Z.65 F4200
G1 X71.289 Y90.309
G1 Z.25
G1 E6 F2400
M204 S500
;TYPE:Skirt/Brim
;WIDTH:0.42
;HEIGHT:0.2
G1 F1200
G1 X73 Y89.811 E.05308
G1 X147 Y89.811 E2.20421
G1 X148.535 Y90.205 E.0472
G1 X149.691 Y91.289 E.0472
G1 X150.189 Y93 E.05308
G1 X150.189 Y127 E1.01274
G1 X149.795 Y128.535 E.0472
G1 X148.711 Y129.691 E.0472
G1 X147 Y130.189 E.05308
G1 X73 Y130.189 E2.20421
G1 X71.465 Y129.795 E.0472
G1 X70.309 Y128.711 E.0472
G1 X69.811 Y127 E.05308
G1 X69.811 Y93 E1.01274
G1 X70.205 Y91.465 E.0472
G1 X71.248 Y90.353 E.04541
G1 E-4.2 F3600
;WIPE_START
G1 F3360
G1 X71.289 Y90.309 E-.06122
G1 X72.929 Y89.832 E-1.73878
;WIPE_END
G1 Z.65 F4200
G1 X137.082 Y96.99
G1 Z.25
G1 E6 F2400
;TYPE:Perimeter
;WIDTH:0.419999
G1 F1200
G1 X137.572 Y96.712 E.01678
G1 X138.175 Y96.511 E.01893
G1 X138.927 Y96.417 E.02257
G1 X139.572 Y96.461 E.01926
G1 X140.315 Y96.665 E.02295
G1 X141.005 Y97.029 E.02324
G1 X141.5 Y97.43 E.01898
G1 X141.99 Y98.023 E.02291
G1 X142.293 Y98.583 E.01897
G1 X142.489 Y99.175 E.01857
G1 X142.584 Y99.938 E.0229
G1 X142.514 Y100.704 E.02291
G1 X142.332 Y101.325 E.01928
G1 X141.971 Y102.005 E.02293
G1 X141.57 Y102.5 E.01898
G1 X141.097 Y102.908 E.01861
G1 X140.428 Y103.287 E.0229
G1 X139.682 Y103.519 E.02327
G1 X139.05 Y103.585 E.01893
G1 X138.284 Y103.512 E.02292
G1 X137.674 Y103.331 E.01895
G1 X136.994 Y102.971 E.02292
G1 X136.5 Y102.57 E.01895
G1 X136.01 Y101.977 E.02291
G1 X135.707 Y101.417 E.01897
G1 X135.511 Y100.825 E.01857
G1 X135.416 Y100.062 E.0229
G1 X135.416 Y99.938 E.00369
G1 X135.488 Y99.284 E.0196
G1 X135.669 Y98.674 E.01895
G1 X135.95 Y98.116 E.01861
G1 X136.423 Y97.509 E.02292
G1 X136.903 Y97.092 E.01894
G1 X137.03 Y97.02 E.00435
G1 X137.03 Y97.02 F4200
G1 X137.283 Y97.304
;TYPE:External perimeter
G1 F1200
G1 X137.753 Y97.043 E.01601
G1 X138.289 Y96.87 E.01678
G1 X138.968 Y96.791 E.02036
G1 X139.54 Y96.836 E.01709
G1 X140.209 Y97.027 E.02072
G1 X140.824 Y97.36 E.02083
G1 X141.258 Y97.719 E.01678
G1 X141.696 Y98.259 E.02071
G1 X141.959 Y98.757 E.01678
G1 X142.13 Y99.289 E.01664
G1 X142.209 Y99.979 E.02069
G1 X142.139 Y100.664 E.02051
G1 X141.972 Y101.212 E.01706
G1 X141.64 Y101.824 E.02074
G1 X141.281 Y102.258 E.01678
G1 X140.855 Y102.619 E.01663
G1 X140.247 Y102.957 E.02072
G1 X139.577 Y103.157 E.02083
G1 X139.017 Y103.209 E.01675
G1 X138.325 Y103.137 E.02072
G1 X137.787 Y102.971 E.01677
G1 X137.176 Y102.64 E.0207
G1 X136.742 Y102.281 E.01678
G1 X136.304 Y101.741 E.02071
G1 X136.041 Y101.243 E.01678
G1 X135.87 Y100.711 E.01664
G1 X135.791 Y99.979 E.02193
G1 X135.863 Y99.325 E.0196
G1 X136.029 Y98.787 E.01677
G1 X136.284 Y98.29 E.01664
G1 X136.717 Y97.745 E.02073
G1 X137.146 Y97.381 E.01676
G1 X137.23 Y97.334 E.00287
G1 E-6 F3600
G1 X137.23 Y97.334 Z.65 F4200
G1 X137.083 Y97.113
G1 X137.012 Y97.161
G1 X136.89 Y97.25
G1 X136.772 Y97.345
G1 X136.659 Y97.445
G1 X136.549 Y97.549
G1 X136.445 Y97.658
G1 X136.345 Y97.772
G1 X136.25 Y97.89
G1 X136.161 Y98.012
G1 X136.077 Y98.138
G1 X135.998 Y98.267
G1 X135.926 Y98.4
G1 X135.859 Y98.535
G1 X135.798 Y98.674
G1 X135.743 Y98.815
G1 X135.695 Y98.958
G1 X135.652 Y99.103
G1 X135.616 Y99.25
G1 X135.587 Y99.398
G1 X135.564 Y99.548
G1 X135.547 Y99.698
G1 X135.543 Y99.76
G1 X117.501 Y125.766
G1 X117.501 Y125.709
G1 Z.25
G1 E6 F2400
;TYPE:Perimeter
;WIDTH:0.450281
G1 F1200
G1 X117.222 Y125.893 E.01075
G1 X117.121 Y125.899 E.00326
;WIDTH:0.444382
G1 X82.779 Y125.899 E1.08907
G1 X82.326 Y125.661 E.01623
;WIDTH:0.419999
G1 X82.213 Y125.321 E.01067
G1 X82.213 Y94.579 E.9157
G1 X82.326 Y94.239 E.01067
G1 X82.683 Y94.031 E.01231
;WIDTH:0.399901
G1 X82.779 Y94.026 E.00271
;WIDTH:0.394381
G1 X117.121 Y94.026 E.95343
;WIDTH:0.419999
G1 X117.574 Y94.239 E.01491
G1 X117.687 Y94.579 E.01067
G1 X117.687 Y125.321 E.9157
G1 X117.574 Y125.661 E.01067
;WIDTH:0.450281
G1 X117.551 Y125.676 E.00088
G1 X117.551 Y125.676 F4200
G1 X117.236 Y125.453
;TYPE:External perimeter
;WIDTH:0.419999
G1 F1200
G1 X117.121 Y125.51 E.00382
G1 X82.779 Y125.51 E1.02293
G1 X82.628 Y125.435 E.00502
G1 X82.59 Y125.321 E.00358
G1 X82.59 Y94.579 E.9157
G1 X82.628 Y94.465 E.00358
G1 X82.779 Y94.39 E.00502
G1 X117.121 Y94.39 E1.02293
G1 X117.272 Y94.465 E.00502
G1 X117.31 Y94.579 E.00358
G1 X117.31 Y125.321 E.9157
G1 X117.278 Y125.416 E.00299
G1 E-6 F3600
G1 X117.278 Y125.416 Z.65 F4200
G1 X146.313 Y126.313
G1 Z.25
G1 E6 F2400
;TYPE:Perimeter
G1 F1200
G1 X117.9 Y126.313 E.84632
;WIDTH:0.444382
G1 X82 Y126.313 E1.13848
;WIDTH:0.419999
G1 X73.687 Y126.313 E.24762
G1 X73.687 Y93.687 E.97182
G1 X82.779 Y93.674 E.27082
;WIDTH:0.394381
G1 X117.121 Y93.674 E.95343
;WIDTH:0.419999
G1 X146.313 Y93.687 E.86953
G1 X146.313 Y96.217 E.07536
G1 X146.313 Y126.253 E.89467
G1 X146.69 Y126.69 F4200
;TYPE:External perimeter
G1 F1200
G1 X73.31 Y126.69 E2.18574
G1 X73.31 Y93.31 E.99427
G1 X146.69 Y93.31 E2.18574
G1 X146.69 Y96.217 E.08659
G1 X146.69 Y126.63 E.9059
G1 E-6 F3600
G1 Z.65 F4200
G1 X146.2 Y94.568
G1 Z.25
G1 E6 F2400
;TYPE:Solid infill
;WIDTH:0.422487
G1 F1200
G1 X145.602 Y93.97 E.02536
G1 X145.065 Y93.97 E.0161
G1 X146.03 Y94.935 E.04092
G1 X146.03 Y95.472 E.0161
G1 X144.528 Y93.97 E.06369
G1 X143.992 Y93.97 E.01607
G1 X146.03 Y96.008 E.08642
G1 X146.03 Y96.545 E.0161
G1 X143.455 Y93.97 E.10919
G1 X142.918 Y93.97 E.0161
G1 X146.03 Y97.082 E.13196
G1 X146.03 Y97.619 E.0161
G1 X142.381 Y93.97 E.15473
G1 X141.844 Y93.97 E.0161
G1 X146.03 Y98.156 E.1775
G1 X146.03 Y98.692 E.01607
G1 X141.308 Y93.97 E.20022
G1 X140.771 Y93.97 E.0161
G1 X146.03 Y99.229 E.22299
G1 X146.03 Y99.766 E.0161
G1 X140.234 Y93.97 E.24576
G1 X139.697 Y93.97 E.0161
G1 X146.03 Y100.303 E.26853
G1 X146.03 Y100.84 E.0161
G1 X139.16 Y93.97 E.2913
G1 X138.624 Y93.97 E.01607
G1 X146.03 Y101.376 E.31403
G1 X146.03 Y101.913 E.0161
G1 X142.514 Y98.397 E.14909
G1 X142.215 Y97.852 E.01864
G1 X141.688 Y97.218 E.02472
G1 X141.149 Y96.785 E.02073
G1 X140.603 Y96.486 E.01866
G1 X138.087 Y93.97 E.10668
G1 X137.55 Y93.97 E.0161
G1 X139.818 Y96.237 E.09615
G1 X139.604 Y96.179 E.00665
G1 X139.197 Y96.153 E.01223
G1 X137.013 Y93.97 E.09259
G1 X136.477 Y93.97 E.01607
G1 X138.668 Y96.161 E.0929
G1 X138.187 Y96.217 E.01452
G1 X135.94 Y93.97 E.09528
G1 X135.403 Y93.97 E.0161
G1 X137.776 Y96.342 E.1006
G1 X137.585 Y96.4 E.00598
G1 X137.388 Y96.492 E.00652
G1 X134.866 Y93.97 E.10694
G1 X134.329 Y93.97 E.0161
G1 X137.047 Y96.687 E.11523
G1 X136.709 Y96.886 E.01176
G1 X133.793 Y93.97 E.12365
G1 X133.256 Y93.97 E.0161
G1 X136.423 Y97.137 E.13429
G1 X136.207 Y97.326 E.00861
G1 X136.149 Y97.4 E.00282
G1 X132.719 Y93.97 E.14544
G1 X132.182 Y93.97 E.0161
G1 X135.915 Y97.703 E.15829
G1 X135.686 Y98.011 E.01151
G1 X131.645 Y93.97 E.17135
G1 X131.109 Y93.97 E.01607
G1 X135.508 Y98.369 E.18653
G1 X135.401 Y98.582 E.00715
G1 X135.352 Y98.75 E.00525
G1 X130.572 Y93.97 E.20268
G1 X130.035 Y93.97 E.0161
G1 X135.231 Y99.166 E.22032
G1 X135.167 Y99.639 E.01431
G1 X129.498 Y93.97 E.24038
G1 X128.961 Y93.97 E.0161
G1 X135.146 Y100.154 E.26224
G1 X135.212 Y100.757 E.01819
G1 X128.255 Y93.8 E.29499
G1 E-6 F3600
G1 X128.255 Y93.8 Z.65 F4200
G1 X128.255 Y93.566
G1 X146.434 Y93.566
G1 X146.434 Y102.62
G1 X146.2 Y102.62
G1 Z.25
G1 E6 F2400
G1 F1200
G1 X142.783 Y99.203 E.14489
G1 X142.85 Y99.807 E.01822
G1 X146.03 Y102.987 E.13484
G1 X146.03 Y103.523 E.01607
G1 X142.836 Y100.329 E.13543
G1 X142.782 Y100.812 E.01457
G1 X146.03 Y104.06 E.13772
G1 X146.03 Y104.597 E.0161
G1 X142.657 Y101.224 E.14302
G1 X142.599 Y101.417 E.00604
G1 X142.501 Y101.604 E.00633
G1 X146.03 Y105.134 E.14966
G1 X146.03 Y105.671 E.0161
G1 X142.316 Y101.956 E.1575
G1 X142.217 Y102.145 E.0064
G1 X142.114 Y102.291 E.00536
G1 X146.03 Y106.207 E.16605
G1 X146.03 Y106.744 E.0161
G1 X141.864 Y102.578 E.17665
G1 X141.687 Y102.782 E.0081
G1 X141.601 Y102.852 E.00332
G1 X146.03 Y107.281 E.1878
G1 X146.03 Y107.818 E.0161
G1 X141.303 Y103.091 E.20044
G1 X141.149 Y103.215 E.00593
G1 X140.982 Y103.306 E.0057
G1 X146.03 Y108.355 E.21407
G1 X146.03 Y108.891 E.01607
G1 X140.635 Y103.496 E.22876
G1 X140.398 Y103.605 E.00782
G1 X140.249 Y103.647 E.00464
G1 X146.03 Y109.428 E.24513
G1 X146.03 Y109.965 E.0161
G1 X139.832 Y103.767 E.26281
G1 X139.677 Y103.811 E.00483
G1 X139.366 Y103.838 E.00936
G1 X146.03 Y110.502 E.28257
G1 X146.03 Y111.039 E.0161
G1 X138.847 Y103.855 E.3046
G1 X138.245 Y103.79 E.01815
G1 X146.03 Y111.575 E.3301
G1 X146.03 Y112.112 E.0161
G1 X137.46 Y103.542 E.36339
G1 X136.816 Y103.194 E.02195
G1 X136.276 Y102.749 E.02098
G1 X135.755 Y102.109 E.02474
G1 X135.452 Y101.534 E.01949
G1 X127.888 Y93.97 E.32073
G1 X127.351 Y93.97 E.0161
G1 X146.03 Y112.649 E.79204
G1 X146.03 Y113.186 E.0161
G1 X126.814 Y93.97 E.81481
G1 X126.278 Y93.97 E.01607
G1 X146.03 Y113.722 E.83753
G1 X146.03 Y114.259 E.0161
G1 X125.741 Y93.97 E.8603
G1 X125.204 Y93.97 E.0161
G1 X146.03 Y114.796 E.88307
G1 X146.03 Y115.333 E.0161
G1 X124.667 Y93.97 E.90584
G1 X124.13 Y93.97 E.0161
G1 X146.03 Y115.87 E.92861
G1 X146.03 Y116.406 E.01607
G1 X123.594 Y93.97 E.95134
G1 X123.057 Y93.97 E.0161
G1 X146.03 Y116.943 E.97411
G1 X146.03 Y117.48 E.0161
G1 X122.52 Y93.97 E.99688
G1 X121.983 Y93.97 E.0161
G1 X146.03 Y118.017 E1.01965
G1 X146.03 Y118.554 E.0161
G1 X121.446 Y93.97 E1.04242
G1 X120.91 Y93.97 E.01607
G1 X146.03 Y119.09 E1.06515
G1 X146.03 Y119.627 E.0161
G1 X120.373 Y93.97 E1.08792
G1 X119.836 Y93.97 E.0161
G1 X146.03 Y120.164 E1.11069
G1 X146.03 Y120.701 E.0161
G1 X119.299 Y93.97 E1.13346
G1 X118.763 Y93.97 E.01607
G1 X146.03 Y121.237 E1.15619
G1 X146.03 Y121.774 E.0161
G1 X118.226 Y93.97 E1.17896
G1 X117.683 Y93.964 E.01628
G1 X146.03 Y122.311 E1.20198
G1 X146.03 Y122.848 E.0161
G1 X117.97 Y94.788 E1.18981
G1 X117.97 Y95.324 E.01607
G1 X146.03 Y123.385 E1.18983
G1 X146.03 Y123.921 E.01607
G1 X117.97 Y95.861 E1.18981
G1 X117.97 Y96.398 E.0161
G1 X146.03 Y124.458 E1.18981
G1 X146.03 Y124.995 E.0161
G1 X117.97 Y96.935 E1.18981
G1 X117.97 Y97.472 E.0161
G1 X146.03 Y125.532 E1.18981
G1 X146.03 Y126.03 E.01493
G1 X145.992 Y126.03 E.00114
G1 X117.97 Y98.008 E1.1882
G1 X117.97 Y98.545 E.0161
G1 X145.455 Y126.03 E1.16543
G1 X144.918 Y126.03 E.0161
G1 X117.97 Y99.082 E1.14266
G1 X117.97 Y99.619 E.0161
G1 X144.381 Y126.03 E1.11989
G1 X143.844 Y126.03 E.0161
G1 X117.97 Y100.156 E1.09712
G1 X117.97 Y100.692 E.01607
G1 X143.308 Y126.03 E1.07439
G1 X142.771 Y126.03 E.0161
G1 X117.97 Y101.229 E1.05162
G1 X117.97 Y101.766 E.0161
G1 X142.234 Y126.03 E1.02885
G1 X141.697 Y126.03 E.0161
G1 X117.97 Y102.303 E1.00608
G1 X117.97 Y102.839 E.01607
G1 X141.161 Y126.03 E.98336
G1 X140.624 Y126.03 E.0161
G1 X117.97 Y103.376 E.96059
G1 X117.97 Y103.913 E.0161
G1 X140.087 Y126.03 E.93782
G1 X139.55 Y126.03 E.0161
G1 X117.97 Y104.45 E.91505
G1 X117.97 Y104.987 E.0161
G1 X139.013 Y126.03 E.89227
G1 X138.477 Y126.03 E.01607
G1 X117.97 Y105.523 E.86955
G1 X117.97 Y106.06 E.0161
G1 X137.94 Y126.03 E.84678
G1 X137.403 Y126.03 E.0161
G1 X117.97 Y106.597 E.82401
G1 X117.97 Y107.134 E.0161
G1 X136.866 Y126.03 E.80124
G1 X136.329 Y126.03 E.0161
G1 X117.97 Y107.671 E.77847
G1 X117.97 Y108.207 E.01607
G1 X135.793 Y126.03 E.75574
G1 X135.256 Y126.03 E.0161
G1 X117.97 Y108.744 E.73297
G1 X117.97 Y109.281 E.0161
G1 X134.719 Y126.03 E.7102
G1 X134.182 Y126.03 E.0161
G1 X117.97 Y109.818 E.68743
G1 X117.97 Y110.354 E.01607
G1 X133.646 Y126.03 E.6647
G1 X133.109 Y126.03 E.0161
G1 X117.97 Y110.891 E.64193
G1 X117.97 Y111.428 E.0161
G1 X132.572 Y126.03 E.61916
G1 X132.035 Y126.03 E.0161
G1 X117.97 Y111.965 E.59639
G1 X117.97 Y112.502 E.0161
G1 X131.498 Y126.03 E.57362
G1 X130.962 Y126.03 E.01607
G1 X117.97 Y113.038 E.55089
G1 X117.97 Y113.575 E.0161
G1 X130.425 Y126.03 E.52812
G1 X129.888 Y126.03 E.0161
G1 X117.97 Y114.112 E.50535
G1 X117.97 Y114.649 E.0161
G1 X129.351 Y126.03 E.48258
G1 X128.814 Y126.03 E.0161
G1 X117.97 Y115.186 E.45981
G1 X117.97 Y115.722 E.01607
G1 X128.278 Y126.03 E.43708
G1 X127.741 Y126.03 E.0161
G1 X117.97 Y116.259 E.41431
G1 X117.97 Y116.796 E.0161
G1 X127.204 Y126.03 E.39154
G1 X126.667 Y126.03 E.0161
G1 X117.97 Y117.333 E.36877
G1 X117.97 Y117.87 E.0161
G1 X126.13 Y126.03 E.346
G1 X125.594 Y126.03 E.01607
G1 X117.97 Y118.406 E.32328
G1 X117.97 Y118.943 E.0161
G1 X125.057 Y126.03 E.30051
G1 X124.52 Y126.03 E.0161
G1 X117.97 Y119.48 E.27774
G1 X117.97 Y120.017 E.0161
G1 X123.983 Y126.03 E.25497
G1 X123.447 Y126.03 E.01607
G1 X117.97 Y120.553 E.23224
G1 X117.97 Y121.09 E.0161
G1 X122.91 Y126.03 E.20947
G1 X122.373 Y126.03 E.0161
G1 X117.97 Y121.627 E.1867
G1 X117.97 Y122.164 E.0161
G1 X121.836 Y126.03 E.16393
G1 X121.299 Y126.03 E.0161
G1 X117.97 Y122.701 E.14116
G1 X117.97 Y123.237 E.01607
G1 X120.763 Y126.03 E.11843
G1 X120.226 Y126.03 E.0161
G1 X117.97 Y123.774 E.09566
G1 X117.97 Y124.311 E.0161
G1 X119.689 Y126.03 E.07289
G1 X119.152 Y126.03 E.0161
G1 X117.97 Y124.848 E.05012
G1 X117.958 Y125.373 E.01575
G1 X118.615 Y126.03 E.02786
G1 X118.079 Y126.03 E.01607
G1 X117.69 Y125.641 E.01649
G1 E-6 F3600
G1 X117.69 Y125.641 Z.65 F4200
G1 X117.566 Y125.641
G1 X117.566 Y125.766
G1 X82.334 Y125.766
G1 X82.334 Y94.394
G1 X82.165 Y94.394
G1 Z.25
G1 E6 F2400
;WIDTH:0.424553
G1 F1200
G1 X81.741 Y93.97 E.01808
G1 X81.201 Y93.97 E.01628
G1 X81.93 Y94.699 E.03108
G1 X81.93 Y95.238 E.01625
G1 X80.662 Y93.97 E.05406
G1 X80.122 Y93.97 E.01628
G1 X81.93 Y95.778 E.07708
G1 X81.93 Y96.318 E.01628
G1 X79.582 Y93.97 E.1001
G1 X79.042 Y93.97 E.01628
G1 X81.93 Y96.858 E.12312
G1 X81.93 Y97.397 E.01625
G1 X78.503 Y93.97 E.1461
G1 X77.963 Y93.97 E.01628
G1 X81.93 Y97.937 E.16913
G1 X81.93 Y98.477 E.01628
G1 X77.423 Y93.97 E.19215
G1 X76.884 Y93.97 E.01625
G1 X81.93 Y99.016 E.21513
G1 X81.93 Y99.556 E.01628
G1 X76.344 Y93.97 E.23815
G1 X75.804 Y93.97 E.01628
G1 X81.93 Y100.096 E.26117
G1 X81.93 Y100.636 E.01628
G1 X75.264 Y93.97 E.28419
G1 X74.725 Y93.97 E.01625
G1 X81.93 Y101.175 E.30717
G1 X81.93 Y101.715 E.01628
G1 X74.185 Y93.97 E.33019
G1 X73.97 Y93.97 E.00648
G1 X73.97 Y94.294 E.00977
G1 X81.93 Y102.255 E.33938
G1 X81.93 Y102.794 E.01625
G1 X73.97 Y94.834 E.33936
G1 X73.97 Y95.374 E.01628
G1 X81.93 Y103.334 E.33936
G1 X81.93 Y103.874 E.01628
G1 X73.97 Y95.914 E.33936
G1 X73.97 Y96.453 E.01625
G1 X81.93 Y104.414 E.33938
G1 X81.93 Y104.953 E.01625
G1 X73.97 Y96.993 E.33936
G1 X73.97 Y97.533 E.01628
G1 X81.93 Y105.493 E.33936
G1 X81.93 Y106.033 E.01628
G1 X73.97 Y98.072 E.33938
G1 X73.97 Y98.612 E.01628
G1 X81.93 Y106.572 E.33936
G1 X81.93 Y107.112 E.01628
G1 X73.97 Y99.152 E.33936
G1 X73.97 Y99.692 E.01628
G1 X81.93 Y107.652 E.33936
G1 X81.93 Y108.191 E.01625
G1 X73.97 Y100.231 E.33936
G1 X73.97 Y100.771 E.01628
G1 X81.93 Y108.731 E.33936
G1 X81.93 Y109.271 E.01628
G1 X73.97 Y101.311 E.33936
G1 X73.97 Y101.85 E.01625
G1 X81.93 Y109.811 E.33938
G1 X81.93 Y110.35 E.01625
G1 X73.97 Y102.39 E.33936
G1 X73.97 Y102.93 E.01628
G1 X81.93 Y110.89 E.33936
G1 X81.93 Y111.43 E.01628
G1 X73.97 Y103.47 E.33936
G1 X73.97 Y104.009 E.01625
G1 X81.93 Y111.969 E.33936
G1 X81.93 Y112.509 E.01628
G1 X73.97 Y104.549 E.33936
G1 X73.97 Y105.089 E.01628
G1 X81.93 Y113.049 E.33936
G1 X81.93 Y113.589 E.01628
G1 X73.97 Y105.628 E.33938
G1 X73.97 Y106.168 E.01628
G1 X81.93 Y114.128 E.33936
G1 X81.93 Y114.668 E.01628
G1 X73.97 Y106.708 E.33936
